static/images/coinswitch-logo.svg

<svg height="135" viewBox="0 0 95 135" width="95" xmlns="http://www.w3.org/2000/svg"><path d="m26.3717647 123.309329c-.0766471.05369-.1356059.119312-.2063529.167036-.7428824.560753-1.5329412 1.038-2.3642353 1.461529l-.0117918.005965c-1.7157059.870942-3.5905882 1.413824-5.5833529 1.610647h-.0058959c-.5011471.047725-.9905294.149136-1.509353.149136h-.3242705c-8.80823534-.178965-15.80647063-7.552353-15.63000005-16.464706.17687647-8.805294 7.28705883-15.814706 15.94235295-15.814706h.3301647c8.49.1789647 15.2229412 7.039412 15.5529412 15.504118.0117917.3281.076647.632353.0707529.960411-.0117912 1.067824-.1473941 2.105824-.3655412 3.102059-.0884353.423547-.2535176.817294-.3714353 1.228883-.1709764.548823-.3124823 1.109588-.5306235 1.628588-.2299353.548823-.5306235 1.055882-.8195294 1.568941-.1827706.3281-.3478529.674118-.5483118.990294-.4009176.608471-.8607647 1.169235-1.3324705 1.718059-.1473942.161071-.2712118.340029-.4245.495135-.5718942.620412-1.2086471 1.169236-1.869 1.688236zm30.2511765-101.3294114c-.1415-.8769411-.2299353-1.7717647-.2122471-2.6964117.0176877-.972353.1532941-1.903.3360647-2.8276471.0471665-.250547.1061236-.5011.1650824-.751647.1945647-.7814706.4362941-1.5450589.737-2.2728236.1238117-.3102058.2771059-.5965294.4186059-.8948235.2594176-.5249588.5424176-1.0439412.8548823-1.5331176.2417294-.387753.4952471-.7516471.7664706-1.11552945.1945647-.25651765.4068118-.4951353.6131765-.73970589.6485294-.76358823 1.3560588-1.46152941 2.1401764-2.08794117.1061236-.08948235.206353-.17896471.3183765-.26248235.5011471-.38178824 1.0140588-.73970589 1.5624118-1.06782353 2.3701176-1.40188236 5.094-2.26088236 8.03-2.26088236h.3301647c8.8082353.17896471 15.8005882 7.55235295 15.6241176 16.46470585-.1709764 8.7988236-7.2752941 15.8147059-15.9423529 15.8147059h-.3301647c-7.0570588-.1431706-12.882353-4.9453529-14.8517647-11.417647-.2358353-.7695295-.4362941-1.5450589-.5601059-2.3504118zm-1.4686471 32.4341177c25.4464706 7.2658823 39.6729412 16.8582353 39.2311765 39.0976471l-.0058959.3638941c-.3242706 16.5305885-8.7082353 28.1388235-22.0388235 34.0747055l.0176876.023863c-10.2058823 5.79247-34.767647 6.490588-47.5794117 6.442941 9.6041176-3.382412 16.6558823-12.557059 16.8682353-23.342941.0117917-.51303-.0294795-1.014118-.0471665-1.521177 5.0822353-.435476 10.2941176-1.282588 15.5411765-2.85147v-.017896c5.9958823-1.682236 9.5158823-5.380824 9.6217647-10.6364708l.0058958-.3638941c.1415-7.1105883-4.1152941-10.8394118-25.0811764-16.7388236-25.2694118-7.0811764-41.52411768-14.5258823-41.02294121-39.8611764l.00589589-.3638942c.30068823-14.83 8.08882353-26.26 20.40529412-32.43999996l-.0176877-.03579294c9.3270589-5.68505882 25.7882353-6.38294118 35.6164706-6.22176471-5.5185294 4.54570589-9.1205882 11.40588231-9.2741176 19.07764711-.0353753 1.8910588.1473941 3.7284117.5070412 5.5061176-4.1035294.3817882-8.0888236 1.2229412-12.9352942 3.0244706-4.2980588 1.897-6.6094117 5.2078235-6.6858823 9.0970588l-.0058959.3638941c-.1650823 8.3817647 5.1824118 11.2270589 26.8729412 17.3235294z" fill="#050708"/></svg>

<?xml version="1.0" encoding="UTF-8"?>
<svg width="95px" height="135px" viewBox="0 0 95 135" version="1.1" xmlns="http://www.w3.org/2000/svg" xmlns:xlink="http://www.w3.org/1999/xlink">
    <!-- Generator: Sketch 63.1 (92452) - https://sketch.com -->
    <title>coinswitch-logo</title>
    <desc>Created with Sketch.</desc>
    <g id="Page-1" stroke="none" stroke-width="1" fill="none" fill-rule="evenodd">
        <g id="coinswitch-logo" fill="#050708" fill-rule="nonzero">
            <path d="M26.3717647,123.309329 C26.2951176,123.363019 26.2361588,123.428641 26.1654118,123.476365 C25.4225294,124.037118 24.6324706,124.514365 23.8011765,124.937894 L23.7893847,124.943859 C22.0736788,125.814801 20.1987965,126.357683 18.2060318,126.554506 L18.2001359,126.554506 C17.6989888,126.602231 17.2096065,126.703642 16.6907829,126.703642 L16.3665124,126.703642 C7.55827706,126.524677 0.560041765,119.151289 0.736512353,110.238936 C0.913388824,101.433642 8.02357118,94.42423 16.6788653,94.42423 L17.00903,94.42423 C25.49903,94.6031947 32.2319712,101.463642 32.5619712,109.928348 C32.5737629,110.256448 32.6386182,110.560701 32.6327241,110.888759 C32.6209329,111.956583 32.48533,112.994583 32.2671829,113.990818 C32.1787476,114.414365 32.0136653,114.808112 31.8957476,115.219701 C31.7247712,115.768524 31.5832653,116.329289 31.3651241,116.848289 C31.1351888,117.397112 30.8345006,117.904171 30.5455947,118.41723 C30.3628241,118.74533 30.1977418,119.091348 29.9972829,119.407524 C29.5963653,120.015995 29.1365182,120.576759 28.6648124,121.125583 C28.5174182,121.286654 28.3936006,121.465612 28.2403124,121.620718 C27.6684182,122.24113 27.0316653,122.789954 26.3713124,123.308954 L26.3717647,123.309329 Z M56.6229412,21.9799176 C56.4814412,21.1029765 56.3930059,20.2081529 56.4106941,19.2835059 C56.4283818,18.3111529 56.5639882,17.3805059 56.7467588,16.4558588 C56.7939253,16.2053118 56.8528824,15.9547588 56.9118412,15.7042118 C57.1064059,14.9227412 57.3481353,14.1591529 57.6488412,13.4313882 C57.7726529,13.1211824 57.9259471,12.8348588 58.0674471,12.5365647 C58.3268647,12.0116059 58.6098647,11.4926235 58.9223294,11.0034471 C59.1640588,10.6156941 59.4175765,10.2518 59.6888,9.88791765 C59.8833647,9.6314 60.0956118,9.39278235 60.3019765,9.14821176 C60.9505059,8.38462353 61.6580353,7.68668235 62.4421529,7.06027059 C62.5482765,6.97078824 62.6485059,6.88130588 62.7605294,6.79778824 C63.2616765,6.416 63.7745882,6.05808235 64.3229412,5.72996471 C66.6930588,4.32808235 69.4169412,3.46908235 72.3529412,3.46908235 L72.6831059,3.46908235 C81.4913412,3.64804706 88.4836941,11.0214353 88.3072235,19.9337882 C88.1362471,28.7326118 81.0319294,35.7484941 72.3648706,35.7484941 L72.0347059,35.7484941 C64.9776471,35.6053235 59.1523529,30.8031412 57.1829412,24.3308471 C56.9471059,23.5613176 56.7466471,22.7857882 56.6228353,21.9804353 L56.6229412,21.9799176 Z M55.1542941,54.4140353 C80.6007647,61.6799176 94.8272353,71.2722706 94.3854706,93.5116824 L94.3795747,93.8755765 C94.0553041,110.406165 85.6713394,122.0144 72.3407512,127.950282 L72.3584388,127.974145 C62.1525565,133.766615 37.5907918,134.464733 24.7790271,134.417086 C34.3831447,131.034674 41.4349094,121.860027 41.6472624,111.074145 C41.6590541,110.561115 41.6177829,110.060027 41.6000959,109.552968 C46.6823312,109.117492 51.8942135,108.27038 57.1412724,106.701498 L57.1412724,106.683602 C63.1371547,105.001366 66.6571547,101.302778 66.7630371,96.0471312 L66.7689329,95.6832371 C66.9104329,88.5726488 62.6536388,84.8438253 41.6877565,78.9444135 C16.4183447,71.8632371 0.163638824,64.4185312 0.664815294,39.0832371 L0.670711176,38.7193429 C0.971399412,23.8893429 8.75953471,12.4593429 21.0760053,6.27934294 L21.0583176,6.24355 C30.3853765,0.558491176 46.8465529,-0.139391176 56.6747882,0.0217852941 C51.1562588,4.56749118 47.5542,11.4276676 47.4006706,19.0994324 C47.3652953,20.9904912 47.5480647,22.8278441 47.9077118,24.60555 C43.8041824,24.9873382 39.8188882,25.8284912 34.9724176,27.6300206 C30.6743588,29.5270206 28.3630059,32.8378441 28.2865353,36.7270794 L28.2806394,37.0909735 C28.1155571,45.4727382 33.4630512,48.3180324 55.1535806,54.4145029 L55.1542941,54.4140353 Z" id="Shape"></path>
        </g>
    </g>
</svg>
